X:1
T:Daisy Bell
M:3/4
L:1/4
K:G
 d ^c d| B A G| A2 F| D3| A3| D3| d3| B2 z| d ^c d| B A G| A2 F| D3|\
 G d G| F- D A| G3-| G2 z| B c B| A G F| B2 G| E3| d c B| A2 ^A| B3-|\
 B2 z| B c B| A G F| B2 G| E2 B| A e ^c| B2 A| d3-| d2 z| d3| B3| G3|\
 D3| E F G| E2 G| D3-| D2 z| A3| d3| B3| G3| E F G| A2 B| A3-| A z B|\
 c B A| d2 B| A G2-| G2 A| B2 G| E2 G| E D2-| D z D| G2 B| A2 z| G2 B|\
 A B c| d B G| A2 D| G3-| G2||
